styles/noto-emoji/1f623.svg

<svg xmlns="http://www.w3.org/2000/svg" xmlns:xlink="http://www.w3.org/1999/xlink" width="128" height="128" viewBox="0 0 128 128"><defs><path id="a" d="M122.35 44.7C113.3 25.05 89.17 10.94 64 10.94S14.71 25.06 5.64 44.7C-8.11 74.53 8.7 97.92 8.7 97.92l.05.04c3.47 10.77 26.86 19.1 55.25 19.1 28.4 0 51.77-8.33 55.25-19.1.01-.01.06-.05.06-.05s16.8-23.38 3.04-53.21z"/></defs><use xlink:href="#a" overflow="visible" fill="#FCC21B"/><clipPath id="b"><use xlink:href="#a" overflow="visible"/></clipPath><g clip-path="url(#b)"><path fill="#FCC21B" d="M30.36 83.34C17.4 87.99 3.11 81.42-1.6 68.64-6.3 55.87.35 41.73 13.3 37.05c12.92-4.65 27.24 1.94 31.97 14.72 4.68 12.78-1.99 26.93-14.91 31.57z"/><path fill="#FCC01C" d="M30.01 82.39C17.58 86.86 3.87 80.56-.64 68.3-5.15 56.05 1.23 42.48 13.65 38c12.39-4.46 26.13 1.86 30.67 14.12 4.49 12.25-1.92 25.82-14.31 30.27z"/><path fill="#FCBE1C" d="M29.66 81.45C17.76 85.72 4.63 79.69.31 67.95-4.01 56.22 2.1 43.23 14 38.94c11.87-4.27 25.02 1.78 29.36 13.52 4.3 11.74-1.83 24.73-13.7 28.99z"/><path fill="#FBBB1D" d="M29.32 80.51C17.95 84.59 5.4 78.83 1.27 67.61-2.86 56.4 2.98 43.98 14.35 39.88c11.34-4.08 23.92 1.7 28.06 12.92 4.11 11.22-1.75 23.64-13.09 27.71z"/><path fill="#FBB91E" d="M28.97 79.57c-10.84 3.89-22.81-1.6-26.75-12.3-3.94-10.69 1.63-22.53 12.47-26.45 10.81-3.89 22.81 1.62 26.76 12.32 3.92 10.7-1.66 22.54-12.48 26.43z"/><path fill="#FBB71E" d="M28.62 78.63c-10.31 3.7-21.7-1.53-25.45-11.71-3.74-10.17 1.55-21.44 11.87-25.16 10.29-3.7 21.7 1.54 25.46 11.72 3.73 10.18-1.59 21.45-11.88 25.15z"/><path fill="#FBB51F" d="M28.27 77.68c-9.79 3.52-20.6-1.45-24.15-11.11C.58 56.93 5.6 46.24 15.39 42.7c9.76-3.51 20.59 1.46 24.16 11.12 3.53 9.67-1.51 20.35-11.28 23.86z"/><path fill="#FAB220" d="M27.93 76.74c-9.26 3.33-19.49-1.37-22.85-10.51-3.36-9.13 1.4-19.25 10.65-22.59 9.24-3.32 19.48 1.38 22.85 10.52 3.36 9.15-1.41 19.26-10.65 22.58z"/><path fill="#FAB020" d="M27.58 75.8c-8.73 3.14-18.38-1.29-21.55-9.91-3.17-8.61 1.32-18.15 10.05-21.3 8.71-3.13 18.37 1.31 21.55 9.92 3.16 8.62-1.34 18.16-10.05 21.29z"/><path fill="#FAAE21" d="M27.23 74.86c-8.21 2.95-17.27-1.21-20.25-9.31C4 57.46 8.22 48.5 16.42 45.53c8.19-2.94 17.26 1.23 20.25 9.32 2.98 8.1-1.25 17.07-9.44 20.01z"/><path fill="#FAAC22" d="M26.89 73.92c-7.68 2.76-16.16-1.14-18.94-8.71-2.79-7.57 1.16-15.96 8.83-18.73 7.66-2.75 16.15 1.15 18.95 8.72 2.78 7.58-1.18 15.96-8.84 18.72z"/><path fill="#F9A922" d="M26.54 72.97c-7.15 2.57-15.05-1.06-17.64-8.11C6.3 57.81 9.97 50 17.12 47.42c7.13-2.57 15.04 1.07 17.65 8.12 2.59 7.06-1.09 14.87-8.23 17.43z"/><path fill="#F9A723" d="M26.19 72.03c-6.62 2.38-13.94-.98-16.34-7.52-2.4-6.53 1-13.77 7.62-16.16 6.61-2.38 13.94.99 16.35 7.53 2.4 6.54-1.02 13.78-7.63 16.15z"/><path fill="#F9A524" d="M25.85 71.09c-6.1 2.19-12.83-.9-15.04-6.92-2.21-6.01.92-12.67 7.01-14.87 6.08-2.19 12.83.91 15.04 6.93 2.21 6.01-.93 12.67-7.01 14.86z"/><path fill="#F9A324" d="M25.5 70.15c-5.57 2-11.72-.83-13.74-6.32-2.02-5.49.84-11.58 6.41-13.59 5.56-2 11.72.83 13.74 6.33 2.02 5.5-.85 11.58-6.41 13.58z"/><path fill="#F8A025" d="M25.15 69.21c-5.04 1.81-10.61-.75-12.44-5.72s.76-10.48 5.8-12.3c5.03-1.81 10.61.75 12.44 5.73 1.83 4.97-.77 10.48-5.8 12.29z"/><path fill="#F89E26" d="M24.81 68.26c-4.51 1.62-9.5-.67-11.14-5.12-1.63-4.45.68-9.39 5.19-11.02 4.5-1.62 9.5.68 11.14 5.13 1.64 4.46-.69 9.39-5.19 11.01z"/><path fill="#F89C26" d="M24.46 67.32c-3.99 1.43-8.39-.59-9.84-4.53-1.44-3.93.6-8.29 4.59-9.73 3.98-1.43 8.39.6 9.84 4.53 1.44 3.94-.61 8.3-4.59 9.73z"/><path fill="#F89A27" d="M24.11 66.38c-3.46 1.24-7.28-.52-8.54-3.93-1.25-3.41.52-7.19 3.98-8.44 3.45-1.24 7.28.52 8.54 3.93 1.26 3.41-.52 7.19-3.98 8.44z"/><path fill="#F79728" d="M23.76 65.44c-2.93 1.05-6.17-.44-7.24-3.33-1.06-2.89.44-6.1 3.37-7.16 2.93-1.05 6.17.44 7.24 3.33 1.07 2.9-.44 6.1-3.37 7.16z"/><path fill="#F79528" d="M23.42 64.5c-2.4.86-5.07-.36-5.94-2.73-.87-2.37.36-5 2.77-5.87 2.4-.86 5.07.36 5.93 2.73.88 2.37-.36 5-2.76 5.87z"/><path fill="#F79329" d="M23.07 63.55c-1.88.67-3.96-.28-4.64-2.13-.68-1.85.28-3.91 2.16-4.59 1.88-.67 3.96.28 4.63 2.13.69 1.86-.27 3.92-2.15 4.59z"/></g><g clip-path="url(#b)"><path fill="#FCC21B" d="M117.62 83.56c-13.08 4.7-27.51-1.93-32.27-14.84-4.74-12.89 1.97-27.17 15.05-31.89 13.04-4.69 27.51 1.95 32.28 14.86 4.72 12.9-2.02 27.19-15.06 31.87z"/><path fill="#FCC01C" d="M117.27 82.61c-12.55 4.51-26.39-1.85-30.95-14.24-4.55-12.37 1.89-26.07 14.43-30.6 12.51-4.5 26.39 1.87 30.97 14.25 4.52 12.4-1.94 26.1-14.45 30.59z"/><path fill="#FCBE1C" d="M116.91 81.66c-12.01 4.31-25.27-1.77-29.64-13.63-4.35-11.84 1.81-24.96 13.82-29.3 11.98-4.31 25.27 1.8 29.65 13.65 4.35 11.86-1.84 24.97-13.83 29.28z"/><path fill="#FBBB1D" d="M116.56 80.71c-11.48 4.12-24.15-1.7-28.33-13.03-4.16-11.32 1.73-23.85 13.21-28 11.45-4.12 24.15 1.72 28.34 13.04 4.15 11.34-1.76 23.87-13.22 27.99z"/><path fill="#FBB91E" d="M116.21 79.76c-10.95 3.93-23.03-1.62-27.01-12.43-3.97-10.79 1.65-22.75 12.6-26.7 10.92-3.93 23.03 1.64 27.02 12.44 3.96 10.81-1.68 22.76-12.61 26.69z"/><path fill="#FBB71E" d="M115.86 78.81c-10.41 3.74-21.91-1.54-25.7-11.82-3.77-10.27 1.57-21.64 11.99-25.4 10.39-3.74 21.91 1.56 25.71 11.83 3.76 10.28-1.61 21.65-12 25.39z"/><path fill="#FBB51F" d="M115.51 77.86c-9.88 3.55-20.79-1.46-24.39-11.22-3.58-9.74 1.49-20.54 11.38-24.1 9.85-3.54 20.79 1.48 24.39 11.23 3.58 9.75-1.52 20.54-11.38 24.09z"/><path fill="#FAB220" d="M115.16 76.9c-9.35 3.36-19.67-1.38-23.07-10.61-3.39-9.22 1.41-19.43 10.76-22.81 9.32-3.35 19.67 1.4 23.08 10.62 3.38 9.24-1.44 19.45-10.77 22.8z"/><path fill="#FAB020" d="M114.81 75.95c-8.82 3.17-18.55-1.3-21.76-10.01-3.19-8.69 1.33-18.32 10.15-21.51 8.79-3.16 18.55 1.32 21.76 10.02 3.19 8.71-1.35 18.34-10.15 21.5z"/><path fill="#FAAE21" d="M114.46 75c-8.28 2.97-17.43-1.23-20.45-9.4-3-8.17 1.25-17.22 9.54-20.21 8.26-2.97 17.43 1.24 20.45 9.41 3 8.18-1.27 17.23-9.54 20.2z"/><path fill="#FAAC22" d="M114.11 74.05c-7.75 2.78-16.31-1.15-19.13-8.8-2.81-7.64 1.17-16.11 8.93-18.91 7.73-2.78 16.31 1.16 19.14 8.81 2.79 7.65-1.2 16.12-8.94 18.9z"/><path fill="#F9A922" d="M113.76 73.1c-7.22 2.59-15.19-1.07-17.82-8.2-2.61-7.12 1.09-15 8.32-17.61 7.2-2.59 15.19 1.08 17.82 8.2 2.61 7.13-1.12 15.02-8.32 17.61z"/><path fill="#F9A723" d="M113.41 72.15c-6.69 2.4-14.07-.99-16.51-7.59-2.42-6.59 1.01-13.9 7.71-16.31 6.67-2.4 14.07 1 16.51 7.6 2.41 6.59-1.04 13.9-7.71 16.3z"/><path fill="#F9A524" d="M113.06 71.2c-6.15 2.21-12.95-.91-15.19-6.99-2.22-6.07.93-12.79 7.09-15.02 6.14-2.21 12.95.92 15.19 6.99 2.23 6.08-.95 12.81-7.09 15.02z"/><path fill="#F9A324" d="M112.71 70.25c-5.62 2.02-11.83-.83-13.88-6.38-2.03-5.54.85-11.69 6.48-13.72 5.6-2.01 11.83.84 13.88 6.39 2.03 5.54-.87 11.69-6.48 13.71z"/><path fill="#F8A025" d="M112.36 69.29c-5.09 1.82-10.71-.76-12.57-5.78-1.84-5.02.77-10.58 5.87-12.42 5.07-1.82 10.71.76 12.56 5.78 1.84 5.04-.78 10.59-5.86 12.42z"/><path fill="#F89E26" d="M112.01 68.34c-4.55 1.63-9.59-.68-11.25-5.17-1.64-4.49.69-9.48 5.26-11.12 4.54-1.63 9.58.68 11.25 5.18 1.64 4.5-.71 9.47-5.26 11.11z"/><path fill="#F89C26" d="M111.66 67.39c-4.02 1.44-8.48-.6-9.94-4.57-1.46-3.97.61-8.37 4.65-9.82 4.01-1.44 8.46.6 9.93 4.57 1.45 3.98-.62 8.37-4.64 9.82z"/><path fill="#F89A27" d="M111.31 66.44c-3.49 1.25-7.36-.52-8.63-3.97-1.27-3.44.53-7.26 4.03-8.52 3.48-1.25 7.34.52 8.62 3.97 1.27 3.45-.54 7.26-4.02 8.52z"/><path fill="#F79728" d="M110.96 65.49c-2.96 1.06-6.24-.44-7.31-3.36-1.07-2.91.46-6.16 3.42-7.23 2.95-1.06 6.22.44 7.3 3.36 1.07 2.93-.46 6.16-3.41 7.23z"/><path fill="#F79528" d="M110.61 64.54c-2.42.87-5.12-.36-6-2.76-.88-2.39.38-5.05 2.81-5.93 2.42-.87 5.1.36 5.99 2.76.88 2.4-.38 5.05-2.8 5.93z"/><path fill="#F79329" d="M110.26 63.59c-1.89.68-3.99-.29-4.69-2.15-.68-1.87.29-3.94 2.2-4.63 1.89-.68 3.98.29 4.67 2.15.69 1.87-.29 3.94-2.18 4.63z"/></g><path fill="#2F2F2F" d="M34.47 47.52a2.771 2.771 0 0 1-3.36-2.03c-.38-1.48.53-2.99 2.02-3.37 3.09-.78 6.4-1.05 9.43-1.08-4.93-2.52-9.27-3.96-9.34-3.98a2.8 2.8 0 0 1-1.79-3.51 2.795 2.795 0 0 1 3.51-1.78c.5.16 12.36 4.1 20.08 10.82.95.82 1.22 2.18.68 3.31-.54 1.12-1.78 1.77-3.02 1.52-.1-.01-10.22-1.9-18.21.1zM89.89 77.01c-1.1 0-2.05-.64-2.51-1.57-.36-.69-7.25-13.41-20.48-13.41-12.33 0-20.96 12.73-21.05 12.86a2.774 2.774 0 0 1-3.85.77c-1.29-.85-1.62-2.58-.77-3.86.4-.62 10.39-15.33 25.67-15.33 16.82 0 25.76 15.85 25.76 17.76 0 1.53-1.24 2.78-2.77 2.78zM99.5 45.49a2.771 2.771 0 0 1-2.69 2.11c-.23 0-.47-.03-.68-.08-7.99-2-18.12-.11-18.21-.1-1.22.25-2.47-.38-3.02-1.52a2.77 2.77 0 0 1 .66-3.31c7.72-6.72 19.59-10.66 20.09-10.82a2.79 2.79 0 0 1 3.51 1.78c.49 1.46-.31 3.02-1.77 3.51-.06.02-4.41 1.46-9.33 3.98 3.03.03 6.32.31 9.41 1.08 1.51.38 2.42 1.89 2.03 3.37z"/></svg>

<?xml version="1.0" encoding="utf-8"?>
<!-- Generator: Adobe Illustrator 16.0.0, SVG Export Plug-In . SVG Version: 6.00 Build 0)  -->
<!DOCTYPE svg PUBLIC "-//W3C//DTD SVG 1.1//EN" "http://www.w3.org/Graphics/SVG/1.1/DTD/svg11.dtd">
<svg version="1.1" id="レイヤー_1" xmlns="http://www.w3.org/2000/svg" xmlns:xlink="http://www.w3.org/1999/xlink" x="0px"
	 y="0px" width="128px" height="128px" viewBox="0 0 128 128" enable-background="new 0 0 128 128" xml:space="preserve">
<g>
	<g>
		<defs>
			<path id="SVGID_1_" d="M122.35,44.7C113.3,25.05,89.17,10.94,64,10.94c-25.17,0-49.29,14.12-58.36,33.76
				C-8.11,74.53,8.7,97.92,8.7,97.92s0.05,0.04,0.05,0.04c3.47,10.77,26.86,19.1,55.25,19.1c28.4,0,51.77-8.33,55.25-19.1
				c0.01-0.01,0.06-0.05,0.06-0.05S136.11,74.53,122.35,44.7z"/>
		</defs>
		<use xlink:href="#SVGID_1_"  overflow="visible" fill="#FCC21B"/>
		<clipPath id="SVGID_2_">
			<use xlink:href="#SVGID_1_"  overflow="visible"/>
		</clipPath>
		<g clip-path="url(#SVGID_2_)">
			<path fill="#FCC21B" d="M30.36,83.34C17.4,87.99,3.11,81.42-1.6,68.64c-4.7-12.77,1.95-26.91,14.9-31.59
				c12.92-4.65,27.24,1.94,31.97,14.72C49.95,64.55,43.28,78.7,30.36,83.34z"/>
			<path fill="#FCC01C" d="M30.01,82.39C17.58,86.86,3.87,80.56-0.64,68.3c-4.51-12.25,1.87-25.82,14.29-30.3
				c12.39-4.46,26.13,1.86,30.67,14.12C48.81,64.37,42.4,77.94,30.01,82.39z"/>
			<path fill="#FCBE1C" d="M29.66,81.45c-11.9,4.27-25.03-1.76-29.35-13.5C-4.01,56.22,2.1,43.23,14,38.94
				c11.87-4.27,25.02,1.78,29.36,13.52C47.66,64.2,41.53,77.19,29.66,81.45z"/>
			<path fill="#FBBB1D" d="M29.32,80.51c-11.37,4.08-23.92-1.68-28.05-12.9C-2.86,56.4,2.98,43.98,14.35,39.88
				c11.34-4.08,23.92,1.7,28.06,12.92C46.52,64.02,40.66,76.44,29.32,80.51z"/>
			<path fill="#FBB91E" d="M28.97,79.57c-10.84,3.89-22.81-1.6-26.75-12.3c-3.94-10.69,1.63-22.53,12.47-26.45
				c10.81-3.89,22.81,1.62,26.76,12.32C45.37,63.84,39.79,75.68,28.97,79.57z"/>
			<path fill="#FBB71E" d="M28.62,78.63C18.31,82.33,6.92,77.1,3.17,66.92c-3.74-10.17,1.55-21.44,11.87-25.16
				c10.29-3.7,21.7,1.54,25.46,11.72C44.23,63.66,38.91,74.93,28.62,78.63z"/>
			<path fill="#FBB51F" d="M28.27,77.68c-9.79,3.52-20.6-1.45-24.15-11.11C0.58,56.93,5.6,46.24,15.39,42.7
				c9.76-3.51,20.59,1.46,24.16,11.12C43.08,63.49,38.04,74.17,28.27,77.68z"/>
			<path fill="#FAB220" d="M27.93,76.74c-9.26,3.33-19.49-1.37-22.85-10.51c-3.36-9.13,1.4-19.25,10.65-22.59
				c9.24-3.32,19.48,1.38,22.85,10.52C41.94,63.31,37.17,73.42,27.93,76.74z"/>
			<path fill="#FAB020" d="M27.58,75.8c-8.73,3.14-18.38-1.29-21.55-9.91c-3.17-8.61,1.32-18.15,10.05-21.3
				c8.71-3.13,18.37,1.31,21.55,9.92C40.79,63.13,36.29,72.67,27.58,75.8z"/>
			<path fill="#FAAE21" d="M27.23,74.86c-8.21,2.95-17.27-1.21-20.25-9.31c-2.98-8.09,1.24-17.05,9.44-20.02
				c8.19-2.94,17.26,1.23,20.25,9.32C39.65,62.95,35.42,71.92,27.23,74.86z"/>
			<path fill="#FAAC22" d="M26.89,73.92c-7.68,2.76-16.16-1.14-18.94-8.71c-2.79-7.57,1.16-15.96,8.83-18.73
				c7.66-2.75,16.15,1.15,18.95,8.72C38.51,62.78,34.55,71.16,26.89,73.92z"/>
			<path fill="#F9A922" d="M26.54,72.97c-7.15,2.57-15.05-1.06-17.64-8.11C6.3,57.81,9.97,50,17.12,47.42
				c7.13-2.57,15.04,1.07,17.65,8.12C37.36,62.6,33.68,70.41,26.54,72.97z"/>
			<path fill="#F9A723" d="M26.19,72.03c-6.62,2.38-13.94-0.98-16.34-7.52c-2.4-6.53,1-13.77,7.62-16.16
				c6.61-2.38,13.94,0.99,16.35,7.53C36.22,62.42,32.8,69.66,26.19,72.03z"/>
			<path fill="#F9A524" d="M25.85,71.09c-6.1,2.19-12.83-0.9-15.04-6.92c-2.21-6.01,0.92-12.67,7.01-14.87
				c6.08-2.19,12.83,0.91,15.04,6.93C35.07,62.24,31.93,68.9,25.85,71.09z"/>
			<path fill="#F9A324" d="M25.5,70.15c-5.57,2-11.72-0.83-13.74-6.32c-2.02-5.49,0.84-11.58,6.41-13.59
				c5.56-2,11.72,0.83,13.74,6.33C33.93,62.07,31.06,68.15,25.5,70.15z"/>
			<path fill="#F8A025" d="M25.15,69.21c-5.04,1.81-10.61-0.75-12.44-5.72c-1.83-4.97,0.76-10.48,5.8-12.3
				c5.03-1.81,10.61,0.75,12.44,5.73C32.78,61.89,30.18,67.4,25.15,69.21z"/>
			<path fill="#F89E26" d="M24.81,68.26c-4.51,1.62-9.5-0.67-11.14-5.12c-1.63-4.45,0.68-9.39,5.19-11.02
				c4.5-1.62,9.5,0.68,11.14,5.13C31.64,61.71,29.31,66.64,24.81,68.26z"/>
			<path fill="#F89C26" d="M24.46,67.32c-3.99,1.43-8.39-0.59-9.84-4.53c-1.44-3.93,0.6-8.29,4.59-9.73
				c3.98-1.43,8.39,0.6,9.84,4.53C30.49,61.53,28.44,65.89,24.46,67.32z"/>
			<path fill="#F89A27" d="M24.11,66.38c-3.46,1.24-7.28-0.52-8.54-3.93c-1.25-3.41,0.52-7.19,3.98-8.44
				c3.45-1.24,7.28,0.52,8.54,3.93C29.35,61.35,27.57,65.13,24.11,66.38z"/>
			<path fill="#F79728" d="M23.76,65.44c-2.93,1.05-6.17-0.44-7.24-3.33c-1.06-2.89,0.44-6.1,3.37-7.16
				c2.93-1.05,6.17,0.44,7.24,3.33C28.2,61.18,26.69,64.38,23.76,65.44z"/>
			<path fill="#F79528" d="M23.42,64.5c-2.4,0.86-5.07-0.36-5.94-2.73c-0.87-2.37,0.36-5,2.77-5.87c2.4-0.86,5.07,0.36,5.93,2.73
				C27.06,61,25.82,63.63,23.42,64.5z"/>
			<path fill="#F79329" d="M23.07,63.55c-1.88,0.67-3.96-0.28-4.64-2.13c-0.68-1.85,0.28-3.91,2.16-4.59
				c1.88-0.67,3.96,0.28,4.63,2.13C25.91,60.82,24.95,62.88,23.07,63.55z"/>
		</g>
		<g clip-path="url(#SVGID_2_)">
			<path fill="#FCC21B" d="M117.62,83.56c-13.08,4.7-27.51-1.93-32.27-14.84c-4.74-12.89,1.97-27.17,15.05-31.89
				c13.04-4.69,27.51,1.95,32.28,14.86C137.4,64.59,130.66,78.88,117.62,83.56z"/>
			<path fill="#FCC01C" d="M117.27,82.61c-12.55,4.51-26.39-1.85-30.95-14.24c-4.55-12.37,1.89-26.07,14.43-30.6
				c12.51-4.5,26.39,1.87,30.97,14.25C136.24,64.42,129.78,78.12,117.27,82.61z"/>
			<path fill="#FCBE1C" d="M116.91,81.66c-12.01,4.31-25.27-1.77-29.64-13.63c-4.35-11.84,1.81-24.96,13.82-29.3
				c11.98-4.31,25.27,1.8,29.65,13.65C135.09,64.24,128.9,77.35,116.91,81.66z"/>
			<path fill="#FBBB1D" d="M116.56,80.71c-11.48,4.12-24.15-1.7-28.33-13.03c-4.16-11.32,1.73-23.85,13.21-28
				c11.45-4.12,24.15,1.72,28.34,13.04C133.93,64.06,128.02,76.59,116.56,80.71z"/>
			<path fill="#FBB91E" d="M116.21,79.76c-10.95,3.93-23.03-1.62-27.01-12.43c-3.97-10.79,1.65-22.75,12.6-26.7
				c10.92-3.93,23.03,1.64,27.02,12.44C132.78,63.88,127.14,75.83,116.21,79.76z"/>
			<path fill="#FBB71E" d="M115.86,78.81c-10.41,3.74-21.91-1.54-25.7-11.82c-3.77-10.27,1.57-21.64,11.99-25.4
				c10.39-3.74,21.91,1.56,25.71,11.83C131.62,63.7,126.25,75.07,115.86,78.81z"/>
			<path fill="#FBB51F" d="M115.51,77.86c-9.88,3.55-20.79-1.46-24.39-11.22c-3.58-9.74,1.49-20.54,11.38-24.1
				c9.85-3.54,20.79,1.48,24.39,11.23C130.47,63.52,125.37,74.31,115.51,77.86z"/>
			<path fill="#FAB220" d="M115.16,76.9c-9.35,3.36-19.67-1.38-23.07-10.61c-3.39-9.22,1.41-19.43,10.76-22.81
				c9.32-3.35,19.67,1.4,23.08,10.62C129.31,63.34,124.49,73.55,115.16,76.9z"/>
			<path fill="#FAB020" d="M114.81,75.95c-8.82,3.17-18.55-1.3-21.76-10.01c-3.19-8.69,1.33-18.32,10.15-21.51
				c8.79-3.16,18.55,1.32,21.76,10.02C128.15,63.16,123.61,72.79,114.81,75.95z"/>
			<path fill="#FAAE21" d="M114.46,75c-8.28,2.97-17.43-1.23-20.45-9.4c-3-8.17,1.25-17.22,9.54-20.21
				c8.26-2.97,17.43,1.24,20.45,9.41C127,62.98,122.73,72.03,114.46,75z"/>
			<path fill="#FAAC22" d="M114.11,74.05c-7.75,2.78-16.31-1.15-19.13-8.8c-2.81-7.64,1.17-16.11,8.93-18.91
				c7.73-2.78,16.31,1.16,19.14,8.81C125.84,62.8,121.85,71.27,114.11,74.05z"/>
			<path fill="#F9A922" d="M113.76,73.1c-7.22,2.59-15.19-1.07-17.82-8.2c-2.61-7.12,1.09-15,8.32-17.61
				c7.2-2.59,15.19,1.08,17.82,8.2C124.69,62.62,120.96,70.51,113.76,73.1z"/>
			<path fill="#F9A723" d="M113.41,72.15c-6.69,2.4-14.07-0.99-16.51-7.59c-2.42-6.59,1.01-13.9,7.71-16.31
				c6.67-2.4,14.07,1,16.51,7.6C123.53,62.44,120.08,69.75,113.41,72.15z"/>
			<path fill="#F9A524" d="M113.06,71.2c-6.15,2.21-12.95-0.91-15.19-6.99c-2.22-6.07,0.93-12.79,7.09-15.02
				c6.14-2.21,12.95,0.92,15.19,6.99C122.38,62.26,119.2,68.99,113.06,71.2z"/>
			<path fill="#F9A324" d="M112.71,70.25c-5.62,2.02-11.83-0.83-13.88-6.38c-2.03-5.54,0.85-11.69,6.48-13.72
				c5.6-2.01,11.83,0.84,13.88,6.39C121.22,62.08,118.32,68.23,112.71,70.25z"/>
			<path fill="#F8A025" d="M112.36,69.29c-5.09,1.82-10.71-0.76-12.57-5.78c-1.84-5.02,0.77-10.58,5.87-12.42
				c5.07-1.82,10.71,0.76,12.56,5.78C120.06,61.91,117.44,67.46,112.36,69.29z"/>
			<path fill="#F89E26" d="M112.01,68.34c-4.55,1.63-9.59-0.68-11.25-5.17c-1.64-4.49,0.69-9.48,5.26-11.12
				c4.54-1.63,9.58,0.68,11.25,5.18C118.91,61.73,116.56,66.7,112.01,68.34z"/>
			<path fill="#F89C26" d="M111.66,67.39c-4.02,1.44-8.48-0.6-9.94-4.57c-1.46-3.97,0.61-8.37,4.65-9.82
				c4.01-1.44,8.46,0.6,9.93,4.57C117.75,61.55,115.68,65.94,111.66,67.39z"/>
			<path fill="#F89A27" d="M111.31,66.44c-3.49,1.25-7.36-0.52-8.63-3.97c-1.27-3.44,0.53-7.26,4.03-8.52
				c3.48-1.25,7.34,0.52,8.62,3.97C116.6,61.37,114.79,65.18,111.31,66.44z"/>
			<path fill="#F79728" d="M110.96,65.49c-2.96,1.06-6.24-0.44-7.31-3.36c-1.07-2.91,0.46-6.16,3.42-7.23
				c2.95-1.06,6.22,0.44,7.3,3.36C115.44,61.19,113.91,64.42,110.96,65.49z"/>
			<path fill="#F79528" d="M110.61,64.54c-2.42,0.87-5.12-0.36-6-2.76c-0.88-2.39,0.38-5.05,2.81-5.93c2.42-0.87,5.1,0.36,5.99,2.76
				C114.29,61.01,113.03,63.66,110.61,64.54z"/>
			<path fill="#F79329" d="M110.26,63.59c-1.89,0.68-3.99-0.29-4.69-2.15c-0.68-1.87,0.29-3.94,2.2-4.63
				c1.89-0.68,3.98,0.29,4.67,2.15C113.13,60.83,112.15,62.9,110.26,63.59z"/>
		</g>
	</g>
	<path fill="#2F2F2F" d="M34.47,47.52c-0.23,0.05-0.45,0.08-0.67,0.08c-1.24,0-2.38-0.84-2.69-2.11c-0.38-1.48,0.53-2.99,2.02-3.37
		c3.09-0.78,6.4-1.05,9.43-1.08c-4.93-2.52-9.27-3.96-9.34-3.98c-1.45-0.48-2.26-2.04-1.79-3.51c0.49-1.46,2.05-2.25,3.51-1.78
		c0.5,0.16,12.36,4.1,20.08,10.82c0.95,0.82,1.22,2.18,0.68,3.31c-0.54,1.12-1.78,1.77-3.02,1.52
		C52.58,47.41,42.46,45.52,34.47,47.52z"/>
	<path fill="#2F2F2F" d="M89.89,77.01c-1.1,0-2.05-0.64-2.51-1.57c-0.36-0.69-7.25-13.41-20.48-13.41
		c-12.33,0-20.96,12.73-21.05,12.86c-0.85,1.28-2.58,1.62-3.85,0.77c-1.29-0.85-1.62-2.58-0.77-3.86
		c0.4-0.62,10.39-15.33,25.67-15.33c16.82,0,25.76,15.85,25.76,17.76C92.66,75.76,91.42,77.01,89.89,77.01z"/>
	<path fill="#2F2F2F" d="M99.5,45.49c-0.31,1.27-1.45,2.11-2.69,2.11c-0.23,0-0.47-0.03-0.68-0.08c-7.99-2-18.12-0.11-18.21-0.1
		c-1.22,0.25-2.47-0.38-3.02-1.52c-0.56-1.12-0.28-2.49,0.66-3.31c7.72-6.72,19.59-10.66,20.09-10.82c1.48-0.47,3.03,0.33,3.51,1.78
		c0.49,1.46-0.31,3.02-1.77,3.51c-0.06,0.02-4.41,1.46-9.33,3.98c3.03,0.03,6.32,0.31,9.41,1.08C98.98,42.5,99.89,44.01,99.5,45.49z
		"/>
</g>
</svg>
